X: 10752
M: 2/4
L: 1/16
K: C
cGec g2fe | d2de c2cd | ecfe dcBA | GgdB GABG |\
cGec g2fe | dcde c2B2 | Acfa g2B2 | c2e2c2 H|]
(ef) |\
gecG EGce | (g2fe f2de) | fdBG DGBd | (f2ed e2cd) |\
ecBc fd^cd | g2af fedc | Aafd c2B2 | (d4 "^D.C."c2) |]
E2 |\
abag f2d2 | ge c4 dc | B2B2^G2G2 | "^D.C."A6 |]


